common/assets/images/icon-remove.svg

<svg enable-background="new 0 0 512 512" height="20" viewBox="0 0 512 512" width="20" xmlns="http://www.w3.org/2000/svg"><path d="m256 0c-141.156 0-256 114.844-256 256s114.844 256 256 256 256-114.844 256-256-114.844-256-256-256zm102.625 313.375c12.5 12.492 12.5 32.758 0 45.25-6.242 6.25-14.437 9.375-22.625 9.375s-16.383-3.125-22.625-9.375l-57.375-57.375-57.375 57.375c-6.242 6.25-14.437 9.375-22.625 9.375s-16.383-3.125-22.625-9.375c-12.5-12.492-12.5-32.758 0-45.25l57.375-57.375-57.375-57.375c-12.5-12.492-12.5-32.758 0-45.25 12.484-12.5 32.766-12.5 45.25 0l57.375 57.375 57.375-57.375c12.484-12.5 32.766-12.5 45.25 0 12.5 12.492 12.5 32.758 0 45.25l-57.375 57.375z" fill="#d9534f"/></svg>

<?xml version='1.0' encoding='iso-8859-1'?><!DOCTYPE svg PUBLIC '-//W3C//DTD SVG 1.1//EN'
        'http://www.w3.org/Graphics/SVG/1.1/DTD/svg11.dtd'>
<svg version="1.1" xmlns="http://www.w3.org/2000/svg" width="20px" height="20px" viewBox="0 0 512 512"
     xmlns:xlink="http://www.w3.org/1999/xlink" enable-background="new 0 0 512 512">
    <path fill="#d9534f"
          d="M256,0C114.844,0,0,114.844,0,256s114.844,256,256,256s256-114.844,256-256S397.156,0,256,0z M358.625,313.375  c12.5,12.492,12.5,32.758,0,45.25C352.383,364.875,344.188,368,336,368s-16.383-3.125-22.625-9.375L256,301.25l-57.375,57.375 C192.383,364.875,184.188,368,176,368s-16.383-3.125-22.625-9.375c-12.5-12.492-12.5-32.758,0-45.25L210.75,256l-57.375-57.375  c-12.5-12.492-12.5-32.758 0-45.25c12.484-12.5,32.766-12.5,45.25,0L256,210.75l57.375-57.375c12.484-12.5,32.766-12.5,45.25,0  c12.5,12.492,12.5,32.758,0,45.25L301.25,256L358.625,313.375z"/>
</svg>
